assets/svgs/building.svg

<svg viewBox="0 0 1024 1024" xmlns="http://www.w3.org/2000/svg"><path d="m284.7744 484.90496h203.12064v54.19008h-203.12064zm0 162.87744h203.12064v54.1696h-203.12064zm0-325.71392h203.12064v54.1696h-203.12064z"/><path d="m610.93888 859.8528h-449.2288v-695.7056h449.2288zm-393.05216-56.13568h336.896v-583.41376h-336.896z"/><path d="m862.28992 859.8528h-306.4832v-439.15264h306.50368v439.15264zm-250.34752-56.13568h194.19136v-326.8608h-194.19136z"/></svg>

<svg xmlns="http://www.w3.org/2000/svg" viewBox="0 0 1024 1024" version="1.1"><path d="M284.7744 484.90496h203.12064v54.19008h-203.12064zM284.7744 647.7824h203.12064v54.1696h-203.12064zM284.7744 322.06848h203.12064v54.1696h-203.12064z" p-id="14731"></path><path d="M610.93888 859.8528H161.71008V164.1472h449.2288v695.7056z m-393.05216-56.13568h336.896V220.30336h-336.896v583.41376z" p-id="14732"></path><path d="M862.28992 859.8528H555.80672V420.70016h306.50368v439.15264zM611.9424 803.71712h194.19136v-326.8608H611.9424v326.8608z" p-id="14733"></path></svg>
